X: 19
T:Morris Off
% Nottingham Music Database
S:Bidford
M:4/4
L:1/4
K:G
B/2c/2|"G"dd de|d3c|"G"BG GA|"D"F2 D2|"G"BG "D7"GA|"G"BG "D7"GA|"G"BG GA|\
"D"F2 D|


